X:1
T:Drowned lover - parsons
C:Taken down from Jas. Parsons, by H.Fl.S. Oct. 1888.
%%VWML:SBG-1-1-164-0
F:http://www.vwml.org/record/SBG/1/1/164
Z:Original Sibleius Transcription by Martin and Shan Graebe
M:3/4
L:1/8
K:Bb
F2 | B2 d2 c2 | B2 F2 [D2F2] | F2 G2 F2 | D4 D2 | E2 E2 B2 |c4 B2 | A2 A2 G2 | F4 AB | c2 c2 c2 |
f2 =e2 d2 | c2 c2 B2 | A4 A2 | B2 c2 B2 |B2 F2 F2 | G2 B2 G2 | F4 GA | B2>F2 DF |
B,4 Bc | d2 cB GB | F4 GA | B2 F2 D2 |E2 e2 d2 | c2 B2 A2 | B4 ||
T:Drowned lover - whitfield
T:Sent me by H. Whitfeld, brush-maker, Plymouth, 1889
T:As sung by his grandfather.
M:3/4
L:1/8
K:Bb
F2 | B2 d2 c2 | B2 A2 G2 | F2 F2 E2 | D4 DC | B,2 D2 F2 |G2 A2 B2 |
 c2 =B2 c2 | F4 F2 | c2 A2 F2 |c4 cd | e2 d2 c2 | d4 dc | B2 B2 A2 |G4 AB | c2 c2 B2 |!fermata!A3GFz ||
|:B4c d|G4A B|F4F2 |E2D4 |c2c2B2 |
!fermata!A2GF Bc|dGc2 BA|G2A2 B2|c2GF Bc|dGe2 dc|!fermata!f3A2 B2 ||
T:Drowned lover - morgan
T:Sent me by E.T. Morgan, 91, Coronation Rd. Bristol 
T:As he remembered hearing it as a child. June 13, 1905
M:3/4
L:1/8
K:G
D2 | G2 G2 G2 | E2 F2 G2 | A2 B2 A2 | G4 AB | c2 d2 c2 |B2 A2 G2 | A2 G2 E2 | D4 D2 | d2 d2 B2 |
c2 c2 d2 | (B2 cB) (AG) | A4 DD | G2>B2 AG |E2 F2 G2 | A2 B2 A2 | 
D4z2 |\
M:4/4 
d4 B2 e2|\ 
M:3/4
(d4> | d4)  z2d2 |(ed) (cB)  (AG) |E2<G2 GA |B2 A3 G| G4 ||


